public/icons/voucher.svg

<svg width="20" height="13" viewBox="0 0 20 13" fill="none" xmlns="http://www.w3.org/2000/svg">
    <g clip-path="url(#clip0_1271_2136)">
    <path d="M20 2.01047V4.84254C19.8443 5.19318 19.576 5.3248 19.213 5.28974C19.0776 5.27679 18.9396 5.28488 18.8031 5.28866C18.2099 5.30484 17.7198 5.77416 17.6609 6.37995C17.6021 6.98683 17.9911 7.5554 18.5734 7.67731C18.7807 7.72101 19.0016 7.72532 19.2135 7.71076C19.5771 7.68594 19.8453 7.80894 20.0005 8.16065V10.9927C19.9917 11.0105 19.9797 11.0278 19.975 11.0472C19.7177 12.0802 19.1078 12.5706 18.0807 12.5706C13.676 12.5706 9.27135 12.5706 4.86719 12.5706C3.83281 12.5706 2.79844 12.5749 1.76406 12.569C0.992708 12.5647 0.326562 12.063 0.0901042 11.3207C0.0546875 11.2134 0.0296875 11.1022 0 10.9927C0 10.0487 0 9.10468 0 8.16065C0.15625 7.8111 0.423437 7.67785 0.786979 7.71346C0.928646 7.72748 1.07344 7.71939 1.21615 7.71346C1.79687 7.6908 2.27969 7.22041 2.33906 6.6227C2.39896 6.01745 2.00885 5.44726 1.42708 5.32588C1.21979 5.28273 0.998958 5.27787 0.786979 5.29244C0.423437 5.31779 0.15625 5.1921 0 4.84254C0 3.89852 0 2.95449 0 2.01047C0.00833333 1.99267 0.0192708 1.9754 0.0239583 1.95652C0.301562 0.90299 0.892708 0.432596 1.93854 0.432596C6.18073 0.432596 10.4224 0.432596 14.6646 0.432596C15.8552 0.432596 17.0458 0.423965 18.2365 0.435833C18.9734 0.443385 19.5109 0.810746 19.8349 1.49584C19.9109 1.65659 19.9458 1.83838 20 2.01047ZM7.64375 10.1436C7.85885 10.1366 8.01979 10.0401 8.14896 9.87177C8.67969 9.18128 9.21302 8.49241 9.74531 7.803C10.7453 6.50834 11.7448 5.21368 12.7464 3.92009C12.8786 3.74909 12.9646 3.56622 12.9141 3.34343C12.8589 3.0996 12.7135 2.93615 12.475 2.87951C12.2104 2.81693 12.0083 2.92752 11.8443 3.14006C10.7073 4.61436 9.56875 6.08758 8.43073 7.56133C8.02448 8.08783 7.61615 8.61271 7.21198 9.14028C7.05729 9.34203 7.0224 9.5659 7.13333 9.80272C7.23698 10.0233 7.41719 10.1264 7.64323 10.1442L7.64375 10.1436ZM10.5865 8.31224C10.5823 9.31021 11.3646 10.1339 12.3245 10.1426C13.2974 10.1512 14.0969 9.33664 14.101 8.3322C14.1052 7.33315 13.324 6.51104 12.363 6.50241C11.3906 6.49378 10.5906 7.30833 10.5865 8.31278V8.31224ZM7.6651 2.86063C6.70156 2.85631 5.90625 3.66763 5.89896 4.66129C5.89115 5.66897 6.67812 6.49701 7.6474 6.50079C8.61094 6.50456 9.40573 5.69486 9.41354 4.70013C9.42187 3.69191 8.63542 2.8644 7.66562 2.86063H7.6651Z" fill="#FFAA00"/>
    <path d="M7.64501 10.1433C7.41845 10.126 7.23876 10.023 7.13512 9.80182C7.02418 9.565 7.05908 9.34168 7.21376 9.13938C7.61845 8.61181 8.02626 8.08639 8.43251 7.56043C9.57053 6.08668 10.7091 4.61346 11.8461 3.13916C12.0101 2.92662 12.2127 2.81604 12.4768 2.87861C12.7148 2.93525 12.8606 3.0987 12.9158 3.34253C12.9658 3.56532 12.8804 3.74819 12.7481 3.9192C11.7466 5.21224 10.7471 6.50744 9.7471 7.8021C9.21481 8.49151 8.68147 9.18038 8.15074 9.87087C8.02158 10.0392 7.86012 10.1357 7.64553 10.1427L7.64501 10.1433Z" fill="white"/>
    <path d="M10.5879 8.31215C10.5921 7.30824 11.3921 6.49315 12.3645 6.50178C13.3254 6.51041 14.1061 7.33252 14.1025 8.33157C14.0983 9.33601 13.2988 10.1511 12.3259 10.1419C11.366 10.1333 10.5837 9.30958 10.5879 8.31161V8.31215ZM12.9301 8.317C12.9275 7.98956 12.6613 7.71606 12.3447 7.71606C12.0285 7.71606 11.7624 7.98956 11.7598 8.31754C11.7572 8.65307 12.0317 8.93466 12.3546 8.92873C12.6712 8.9228 12.9327 8.64498 12.9296 8.317H12.9301Z" fill="white"/>
    <path d="M7.66613 2.86122C8.63644 2.86554 9.42238 3.6925 9.41405 4.70072C9.40624 5.69546 8.61144 6.5057 7.6479 6.50138C6.67863 6.49707 5.89217 5.66956 5.89946 4.66188C5.90728 3.66769 6.70259 2.85691 7.66561 2.86122H7.66613ZM8.24217 4.68886C8.24634 4.36141 7.9854 4.08252 7.66926 4.07551C7.35363 4.0685 7.08123 4.33714 7.07238 4.66404C7.06301 4.99903 7.33123 5.28656 7.65519 5.28764C7.97134 5.28872 8.23853 5.0163 8.24269 4.68886H8.24217Z" fill="white"/>
    <path d="M12.9296 8.31761C12.9322 8.6456 12.6712 8.92341 12.3546 8.92934C12.0311 8.93528 11.7572 8.65369 11.7598 8.31815C11.7624 7.99071 12.0285 7.71721 12.3447 7.71667C12.6613 7.71667 12.9275 7.98963 12.9301 8.31761H12.9296Z" fill="#FFAA00"/>
    <path d="M8.24184 4.6877C8.23767 5.01568 7.97049 5.2881 7.65434 5.28648C7.33038 5.2854 7.06215 4.99788 7.07153 4.66289C7.08038 4.33598 7.35278 4.06734 7.6684 4.07435C7.98507 4.08137 8.24549 4.36026 8.24132 4.6877H8.24184Z" fill="#FFAA00"/>
    </g>
    <defs>
    <clipPath id="clip0_1271_2136">
    <rect width="20" height="12.1429" fill="white" transform="translate(0 0.428711)"/>
    </clipPath>
    </defs>
    </svg>

<svg width="20" height="13" fill="none" xmlns="http://www.w3.org/2000/svg"><g clip-path="url(#a)"><path d="M20 2.01v2.833c-.156.35-.424.482-.787.447-.135-.013-.273-.005-.41-.001a1.195 1.195 0 0 0-1.142 1.091c-.059.607.33 1.175.912 1.297.208.044.429.048.64.034.364-.025.632.098.787.45v2.832c-.008.018-.02.035-.025.054-.257 1.033-.867 1.524-1.894 1.524H4.867c-1.034 0-2.069.004-3.103-.002A1.766 1.766 0 0 1 .09 11.321c-.035-.108-.06-.219-.09-.328V8.16c.156-.35.423-.483.787-.448.142.014.286.006.43 0 .58-.022 1.063-.493 1.122-1.09.06-.606-.33-1.176-.912-1.297a2.377 2.377 0 0 0-.64-.034c-.364.026-.63-.1-.787-.45V2.01c.008-.017.02-.035.024-.053C.302.903.893.433 1.939.433h12.726c1.19 0 2.38-.009 3.572.003.736.007 1.274.375 1.598 1.06.076.16.11.342.165.514zM7.644 10.144a.634.634 0 0 0 .505-.272c.53-.69 1.064-1.38 1.596-2.069 1-1.295 2-2.59 3.001-3.883.133-.17.219-.354.168-.577-.055-.243-.2-.407-.439-.463-.265-.063-.467.048-.63.26L8.43 7.561c-.407.527-.815 1.052-1.219 1.58a.604.604 0 0 0-.079.662c.104.22.284.323.51.341zm2.942-1.832c-.004.998.779 1.822 1.739 1.83.972.01 1.772-.805 1.776-1.81.004-.999-.777-1.821-1.738-1.83-.972-.008-1.772.806-1.777 1.81zm-2.92-5.451c-.964-.005-1.76.807-1.767 1.8-.008 1.008.78 1.836 1.748 1.84.964.004 1.759-.806 1.767-1.8.008-1.01-.779-1.837-1.748-1.84z" fill="#FA0"/><path d="M7.645 10.143a.572.572 0 0 1-.51-.341.604.604 0 0 1 .079-.663c.404-.527.812-1.053 1.219-1.579l3.413-4.42c.164-.213.367-.324.63-.261.239.056.385.22.44.464.05.222-.036.405-.168.576-1.001 1.293-2 2.588-3 3.883-.533.69-1.067 1.378-1.597 2.069a.635.635 0 0 1-.505.272h-.001zM10.588 8.312c.004-1.004.804-1.819 1.777-1.81.96.008 1.741.83 1.737 1.83-.004 1.004-.803 1.82-1.776 1.81-.96-.009-1.742-.832-1.738-1.83zm2.342.005a.602.602 0 0 0-.585-.6.602.602 0 0 0-.585.6c-.003.336.272.618.595.612a.603.603 0 0 0 .575-.612zM7.666 2.861c.97.005 1.756.831 1.748 1.84-.008.994-.803 1.805-1.766 1.8-.97-.004-1.756-.831-1.749-1.84.008-.993.804-1.804 1.767-1.8zm.576 1.828a.603.603 0 0 0-.573-.613.602.602 0 0 0-.597.588c-.009.335.26.623.583.624a.603.603 0 0 0 .588-.6z" fill="#fff"/><path d="M12.93 8.318a.603.603 0 0 1-.575.611c-.324.006-.598-.275-.595-.61a.603.603 0 0 1 .585-.602c.316 0 .582.273.585.6zM8.242 4.688a.602.602 0 0 1-.588.598c-.324 0-.592-.288-.582-.623a.602.602 0 0 1 .596-.589.603.603 0 0 1 .573.614z" fill="#FA0"/></g><defs><clipPath id="a"><path fill="#fff" transform="translate(0 .429)" d="M0 0h20v12.143H0z"/></clipPath></defs></svg>
